assets/icons/qvision/tv_off.svg

<svg xmlns="http://www.w3.org/2000/svg" height="24" viewBox="0 0 24 24" width="24"><path d="M0 0h24v24H0V0z" fill="none"/><path d="M1 3.54l1.53 1.53C1.65 5.28 1 6.06 1 7v12c0 1.1.9 2 2 2h15.46l2 2 1.26-1.27L2.27 2.27 1 3.54zM3 19V7h1.46l12 12H3zM21 5h-7.58l3.29-3.3L16 1l-4 4-4-4-.7.7L10.58 5H7.52l2 2H21v11.48l1.65 1.65c.22-.32.35-.71.35-1.13V7c0-1.11-.89-2-2-2z"/></svg>

<svg width="24" height="24" viewBox="0 0 24 24" fill="none" xmlns="http://www.w3.org/2000/svg">
<g clip-path="url(#clip0_147_6059)">
<path d="M1 3.54L2.53 5.07C1.65 5.28 1 6.06 1 7V19C1 20.1 1.9 21 3 21H18.46L20.46 23L21.72 21.73L2.27 2.27L1 3.54ZM3 19V7H4.46L16.46 19H3ZM21 5H13.42L16.71 1.7L16 1L12 5L8 1L7.3 1.7L10.58 5H7.52L9.52 7H21V18.48L22.65 20.13C22.87 19.81 23 19.42 23 19V7C23 5.89 22.11 5 21 5Z" fill="#323232"/>
</g>
<defs>
<clipPath id="clip0_147_6059">
<rect width="24" height="24" fill="white"/>
</clipPath>
</defs>
</svg>
